brandFactory_export/1.Light/Regla medir medida_1Light.svg

<?xml version="1.0" encoding="UTF-8"?>
<svg width="24px" height="24px" viewBox="0 0 24 24" version="1.1" xmlns="http://www.w3.org/2000/svg" xmlns:xlink="http://www.w3.org/1999/xlink">
    <title>1.Light/Regla medir medida_1Light</title>
    <g id="Symbols" stroke="none" stroke-width="1" fill="none" fill-rule="evenodd">
        <g id="1.Light/Regla-medir-medida_1Light" fill="#5CB615" fill-rule="nonzero">
            <path d="M22.4369748,18.6117647 C22.6487395,18.4 22.6487395,18.0571429 22.4369748,17.8453782 L18.2722689,13.6773109 L16.4705882,15.4453782 C16.2689076,15.6436975 15.9462185,15.6436975 15.7478992,15.4420168 L15.7445378,15.4386555 C15.5462185,15.2369748 15.5495798,14.9109244 15.7512605,14.712605 L17.5462185,12.9478992 L15.7378151,11.1361345 L13.0218487,13.8487395 C12.8201681,14.0504202 12.4941176,14.0504202 12.2957983,13.8487395 C12.0941176,13.6470588 12.0941176,13.3210084 12.2957983,13.1226891 L15.0084034,10.4067227 L13.2033613,8.60168067 L11.6033613,10.1781513 C11.4016807,10.3764706 11.0756303,10.3731092 10.8773109,10.1714286 C10.6789916,9.9697479 10.6789916,9.64705882 10.8806723,9.44537815 L10.8840336,9.44201681 L12.4773109,7.87563025 L10.6689076,6.06722689 L7.6605042,9.0789916 C7.45882353,9.28067227 7.13277311,9.28067227 6.93445378,9.0789916 C6.73277311,8.87731092 6.73277311,8.5512605 6.93445378,8.35294118 L9.94285714,5.34453782 L8.13445378,3.53277311 L6.63529412,5.00840336 C6.43361345,5.20672269 6.10756303,5.20336134 5.90588235,5.00168067 C5.70756303,4.8 5.71092437,4.47394958 5.91260504,4.27226891 L7.40840336,2.80336134 L5.77815126,1.17310924 C5.56638655,0.961344538 5.22352941,0.961344538 5.01176471,1.1697479 L5.00840336,1.17310924 L1.18655462,4.99831933 C0.974789916,5.21008403 0.974789916,5.55630252 1.18655462,5.76806723 L17.8453782,22.4369748 C18.0571429,22.6453782 18.4,22.6453782 18.6117647,22.4369748 L22.4369748,18.6117647 L22.4369748,18.6117647 Z M23.1630252,17.112605 C23.4588235,17.4084034 23.6235294,17.805042 23.6235294,18.2252101 C23.6235294,18.6453782 23.4621849,19.0420168 23.1630252,19.3378151 L19.3411765,23.1630252 C19.0453782,23.4588235 18.6487395,23.6235294 18.2285714,23.6235294 C17.8084034,23.6235294 17.4151261,23.4621849 17.1193277,23.1630252 L0.460504202,6.49411765 C0.164705882,6.20168067 -0.00336134454,5.80168067 -4.94727918e-05,5.38487395 C-4.94727918e-05,4.96470588 0.161344538,4.57142857 0.460504202,4.27226891 L4.28235294,0.447058824 C4.87394958,-0.14789916 5.91260504,-0.14789916 6.50420168,0.447058824 L23.1630252,17.112605 Z M18.9983193,18.6487395 C19.1697479,18.3462185 19.0689076,17.9596639 18.7663866,17.7848739 C18.4672269,17.610084 18.0806723,17.7142857 17.9092437,18.0134454 C17.9092437,18.0134454 17.9092437,18.0168067 17.9058824,18.0168067 C17.7310924,18.3193277 17.8352941,18.702521 18.1344538,18.8773109 C18.4403361,19.0554622 18.8235294,18.9478992 18.9983193,18.6487395 Z M19.1529412,17.1159664 C19.8252101,17.502521 20.0571429,18.3596639 19.6739496,19.0319328 C19.287395,19.7042017 18.4302521,19.9361345 17.7579832,19.5529412 C17.4319328,19.3680672 17.1966387,19.0588235 17.0991597,18.6957983 C17.0016807,18.3361345 17.0521008,17.9529412 17.2403361,17.6302521 C17.6268908,16.9613445 18.4806723,16.7294118 19.1495798,17.112605 C19.1495798,17.1159664 19.1495798,17.1159664 19.1529412,17.1159664 Z" id="Regla-medir-medida_1Light"></path>
        </g>
    </g>
</svg>

<svg width="24" height="24" viewBox="0 0 24 24" xmlns="http://www.w3.org/2000/svg"><path d="M22.437 18.612a.542.542 0 000-.767l-4.165-4.168-1.801 1.768a.51.51 0 01-.723-.003l-.003-.003a.514.514 0 01.006-.726l1.795-1.765-1.808-1.812-2.716 2.713a.511.511 0 01-.726 0 .511.511 0 010-.726l2.712-2.716-1.805-1.805-1.6 1.576a.514.514 0 01-.722-.733l.003-.003 1.593-1.566-1.808-1.809L7.66 9.08a.511.511 0 01-.727 0 .511.511 0 010-.726l3.009-3.008-1.809-1.812-1.499 1.475a.518.518 0 01-.73-.006.518.518 0 01.008-.73l1.495-1.469-1.63-1.63a.545.545 0 00-.766-.003l-.004.003-3.821 3.825a.546.546 0 000 .77l16.658 16.669a.548.548 0 00.767 0l3.825-3.825zm.726-1.5c.296.296.46.693.46 1.113 0 .42-.16.817-.46 1.113l-3.822 3.825c-.296.296-.692.46-1.112.46-.42 0-.814-.16-1.11-.46L.461 6.494A1.545 1.545 0 010 5.384c0-.42.161-.813.46-1.112L4.283.447c.592-.595 1.63-.595 2.222 0l16.659 16.666zm-4.165 1.537a.635.635 0 00-.232-.864.626.626 0 00-.857.228s0 .004-.003.004a.63.63 0 101.092.632zm.155-1.533c.672.387.904 1.244.52 1.916a1.407 1.407 0 01-1.915.52 1.399 1.399 0 01-.659-.856 1.39 1.39 0 01.141-1.066 1.402 1.402 0 011.913-.514z" fill="#5CB615" fill-rule="nonzero"/></svg>
